public/flags/GW.svg

<svg fill="none" height="53" viewBox="0 0 64 53" width="64" xmlns="http://www.w3.org/2000/svg" xmlns:xlink="http://www.w3.org/1999/xlink"><mask id="a" height="43" maskUnits="userSpaceOnUse" width="59" x="5" y="3"><rect fill="#fff" height="42.5" rx="4.24286" width="59" x="5" y="3"/></mask><rect fill="#fff" height="42.5" rx="4.24286" width="59" x="5" y="3"/><g clip-rule="evenodd" fill-rule="evenodd" mask="url(#a)"><path d="m5 45.5h59v-22.6667h-59z" fill="#1ab558"/><path d="m5 22.8333h59v-19.8333h-59z" fill="#ffd952"/><path d="m5 45.5h22.4762v-42.5h-22.4762z" fill="#e72b42"/><path d="m16.2382 26.9665-4.1285 3.0141 1.5666-4.8911-4.11817-3.0283 5.09677-.0089 1.5833-4.8856 1.5833 4.8856 5.0967.0089-4.1182 3.0283 1.5667 4.8911z" fill="#262626"/></g></svg>

<svg width="64" height="53" viewBox="0 0 64 53" fill="none" xmlns="http://www.w3.org/2000/svg">
<rect x="5" y="3" width="59" height="42.5" rx="4.24286" fill="white"/>
<mask id="mask0" mask-type="alpha" maskUnits="userSpaceOnUse" x="5" y="3" width="59" height="43">
<rect x="5" y="3" width="59" height="42.5" rx="4.24286" fill="white"/>
</mask>
<g mask="url(#mask0)">
<path fill-rule="evenodd" clip-rule="evenodd" d="M5 45.5H64V22.8333H5V45.5Z" fill="#1AB558"/>
<path fill-rule="evenodd" clip-rule="evenodd" d="M5 22.8333H64V3H5V22.8333Z" fill="#FFD952"/>
<path fill-rule="evenodd" clip-rule="evenodd" d="M5 45.5H27.4762V3H5V45.5Z" fill="#E72B42"/>
<path fill-rule="evenodd" clip-rule="evenodd" d="M16.2382 26.9665L12.1097 29.9806L13.6763 25.0895L9.55813 22.0612L14.6549 22.0523L16.2382 17.1667L17.8215 22.0523L22.9182 22.0612L18.8 25.0895L20.3667 29.9806L16.2382 26.9665Z" fill="#262626"/>
</g>
</svg>
